<?xml version="1.0" encoding="UTF-8"?>
<map version="1.10" tiledversion="1.12.2" orientation="orthogonal" renderorder="right-down" width="30" height="30" tilewidth="24" tileheight="24" infinite="0" nextlayerid="4" nextobjectid="8">
 <tileset firstgid="1" source="texture.tsx"/>
 <layer id="1" name="Fondo" width="30" height="30">
  <data encoding="csv">
474,474,474,474,474,474,474,474,474,474,474,474,474,474,474,474,474,474,474,474,474,474,474,474,474,474,474,474,474,474,
474,474,474,474,474,474,474,474,474,474,474,474,474,474,474,474,474,474,474,474,474,474,474,474,474,474,474,474,474,474,
474,474,474,474,474,474,474,474,474,474,474,474,474,474,474,474,474,474,474,474,474,474,474,474,474,474,474,474,474,474,
474,474,474,474,474,474,474,474,474,474,474,474,474,474,474,474,474,474,474,474,474,474,474,474,474,474,474,474,474,474,
474,474,474,474,474,474,474,474,474,474,474,474,474,474,474,474,474,474,474,474,474,474,474,474,474,474,474,474,474,474,
474,474,474,474,474,474,474,474,474,474,474,474,474,474,474,474,474,474,474,474,474,474,474,474,474,474,474,474,474,474,
474,474,474,474,474,474,474,474,474,474,474,474,474,474,474,474,474,474,474,474,474,474,474,474,474,474,474,474,474,474,
474,474,474,474,474,474,474,474,474,474,474,474,474,474,474,474,474,474,474,474,474,474,474,474,474,474,474,474,474,474,
474,474,474,474,474,474,474,474,474,474,474,474,474,474,474,474,474,474,474,474,474,474,474,474,474,474,474,474,474,474,
474,474,474,474,474,474,474,474,474,474,474,474,474,474,474,474,474,474,474,474,474,474,474,474,474,474,474,474,474,474,
474,474,474,474,474,474,474,474,474,474,474,474,474,474,474,474,474,474,474,474,474,474,474,474,474,474,474,474,474,474,
474,474,474,474,474,474,474,474,474,474,474,474,474,474,474,474,474,474,474,474,474,474,474,474,474,474,474,474,474,474,
474,474,474,474,474,474,474,474,474,474,474,474,474,474,474,474,474,474,474,474,474,474,474,474,474,474,474,474,474,474,
474,474,474,474,474,474,474,474,474,474,474,474,474,474,474,474,474,474,474,474,474,474,474,474,474,474,474,474,474,474,
474,474,474,474,474,474,474,474,474,474,474,474,474,474,474,474,474,474,474,474,474,474,474,474,474,474,474,474,474,474,
474,474,474,474,474,474,474,474,474,474,474,474,474,474,474,474,474,474,474,474,474,474,474,474,474,474,474,474,474,474,
474,474,474,474,474,474,474,474,474,474,474,474,474,474,474,474,474,474,474,474,474,474,474,474,474,474,474,474,474,474,
474,474,474,474,474,474,474,474,474,474,474,474,474,474,474,474,474,474,474,474,474,474,474,474,474,474,474,474,474,474,
474,474,474,474,474,474,474,474,474,474,474,474,474,474,474,474,474,474,474,474,474,474,474,474,474,474,474,474,474,474,
474,474,474,474,474,474,474,474,474,474,474,474,474,474,474,474,474,474,474,474,474,474,474,474,474,474,474,474,474,474,
474,474,474,474,474,474,474,474,474,474,474,474,474,474,474,474,474,474,474,474,474,474,474,474,474,474,474,474,474,474,
474,474,474,474,474,474,474,474,474,474,474,474,474,474,474,474,474,474,474,474,474,474,474,474,474,474,474,474,474,474,
474,474,474,474,474,474,474,474,474,474,474,474,474,474,474,474,474,474,474,474,474,474,474,474,474,474,474,474,474,474,
474,474,474,474,474,474,474,474,474,474,474,474,474,474,474,474,474,474,474,474,474,474,474,474,474,474,474,474,474,474,
474,474,474,474,474,474,474,474,474,474,474,474,474,474,474,474,474,474,474,474,474,474,474,474,474,474,474,474,474,474,
474,474,474,474,474,474,474,474,474,474,474,474,474,474,474,474,474,474,474,474,474,474,474,474,474,474,474,474,474,474,
474,474,474,474,474,474,474,474,474,474,474,474,474,474,474,474,474,474,474,474,474,474,474,474,474,474,474,474,474,474,
474,474,474,474,474,474,474,474,474,474,474,474,474,474,474,474,474,474,474,474,474,474,474,474,474,474,474,474,474,474,
474,474,474,474,474,474,474,474,474,474,474,474,474,474,474,474,474,474,474,474,474,474,474,474,474,474,474,474,474,474,
474,474,474,474,474,474,474,474,474,474,474,474,474,474,474,474,474,474,474,474,474,474,474,474,474,474,474,474,474,474
</data>
 </layer>
 <layer id="2" name="Plataformas" width="30" height="30">
  <data encoding="csv">
835,835,835,835,835,835,835,835,835,835,835,835,835,835,835,835,835,835,835,835,835,835,835,835,835,835,835,835,835,835,
835,0,0,0,0,0,0,0,0,0,0,0,0,835,0,0,0,0,0,0,0,0,0,0,0,0,0,0,0,835,
835,0,0,0,0,0,0,0,0,0,0,0,0,835,0,0,0,0,0,0,0,0,0,0,0,0,0,0,0,835,
835,0,0,835,835,835,835,835,835,835,0,0,0,835,0,0,835,0,0,0,0,0,0,0,835,0,0,0,0,835,
835,0,0,835,0,0,835,0,0,835,0,0,0,835,0,0,835,0,0,0,0,0,0,0,835,0,0,0,0,835,
835,0,0,0,0,0,835,0,0,835,0,0,0,835,0,0,835,0,0,835,835,835,835,835,835,0,0,0,0,835,
835,0,0,0,0,0,835,0,0,835,0,0,0,835,0,0,835,0,0,835,0,0,0,0,835,0,0,0,0,835,
835,0,0,835,835,835,835,0,0,835,835,835,835,835,0,0,835,835,835,835,0,0,0,0,835,0,0,0,0,835,
835,0,0,0,0,0,835,0,0,0,0,0,0,0,0,0,0,0,0,835,0,0,0,0,835,0,0,0,0,835,
835,0,0,0,0,0,835,0,0,0,0,0,0,0,0,0,0,0,0,835,0,0,0,0,835,0,0,0,0,835,
835,0,0,835,835,835,835,835,835,835,0,0,835,835,835,835,835,835,835,835,0,0,0,0,835,0,0,0,0,835,
835,0,0,835,0,0,0,0,0,0,0,0,835,0,0,835,0,0,0,0,0,0,0,0,835,0,0,0,0,835,
835,0,0,835,0,0,0,0,0,0,0,0,835,0,0,835,0,0,0,0,0,0,0,0,835,0,0,0,0,835,
835,0,0,835,835,835,835,835,835,835,835,835,835,0,0,835,0,0,835,835,835,835,0,0,835,0,0,0,0,835,
835,0,0,0,0,0,0,0,0,0,0,0,0,0,0,835,0,0,835,0,0,835,0,0,835,0,0,0,0,835,
835,0,0,0,0,0,0,0,0,0,0,0,0,0,0,835,0,0,835,0,0,835,0,0,835,0,0,0,0,835,
835,0,0,835,835,835,835,835,835,0,0,835,835,835,835,835,0,0,835,0,0,835,0,0,835,835,835,0,0,835,
835,0,0,0,0,835,0,0,835,0,0,0,0,0,0,0,0,0,835,0,0,835,0,0,0,0,835,0,0,835,
835,0,0,0,0,835,0,0,835,0,0,0,0,0,0,0,0,0,835,0,0,835,0,0,0,0,835,0,0,835,
835,0,0,0,0,835,0,0,835,0,0,835,835,835,835,835,835,835,835,0,0,835,0,0,835,835,835,0,0,835,
835,0,0,0,0,835,0,0,835,0,0,835,0,0,0,0,0,0,0,0,0,835,0,0,835,0,0,0,0,835,
835,0,0,0,0,835,0,0,0,0,0,0,0,0,0,0,0,0,0,0,0,835,0,0,0,0,0,0,0,835,
835,0,0,0,0,835,0,0,0,0,0,0,0,0,0,0,0,0,0,0,0,835,0,0,0,0,0,0,0,835,
835,0,0,0,0,835,0,0,835,0,0,835,835,835,835,835,835,835,835,0,0,835,0,0,835,835,835,0,0,835,
835,0,0,0,0,835,0,0,835,0,0,835,0,0,0,0,0,0,835,0,0,835,0,0,835,0,0,0,0,835,
835,0,0,0,0,835,0,0,835,0,0,835,0,0,0,0,0,0,835,0,0,835,0,0,835,0,0,0,0,835,
835,0,0,0,0,835,835,835,835,0,0,835,0,0,835,835,0,0,835,0,0,835,0,0,835,0,0,0,0,835,
835,0,0,0,0,0,0,0,0,0,0,0,0,0,835,835,0,0,0,0,0,835,0,0,835,0,0,0,0,835,
835,0,0,0,0,0,0,0,0,0,0,0,0,0,835,835,0,0,0,0,0,835,0,0,835,0,0,0,0,835,
835,835,835,835,835,835,835,835,835,835,835,835,835,835,835,835,835,835,835,835,835,835,835,835,835,835,835,835,835,835
</data>
 </layer>
 <objectgroup id="3" name="Objetos">
  <object id="1" name="player" x="53.3333" y="72">
   <point/>
  </object>
  <object id="2" type="star" x="646.667" y="662.667">
   <point/>
  </object>
  <object id="3" type="star" x="432" y="157.333">
   <point/>
  </object>
  <object id="4" type="star" x="480" y="388">
   <point/>
  </object>
  <object id="5" type="star" x="116" y="308">
   <point/>
  </object>
  <object id="6" type="star" x="168" y="456">
   <point/>
  </object>
  <object id="7" name="goal" type="goal" x="194.667" y="144">
   <point/>
  </object>
 </objectgroup>
</map>
