<?xml version="1.0" encoding="UTF-8"?>
<map version="1.10" tiledversion="1.12.2" orientation="orthogonal" renderorder="right-down" width="60" height="30" tilewidth="24" tileheight="24" infinite="0" nextlayerid="4" nextobjectid="10">
 <tileset firstgid="1" source="texture.tsx"/>
 <layer id="2" name="Fondo" width="60" height="30">
  <data encoding="csv">
0,0,0,0,0,0,0,0,0,0,0,0,0,0,0,0,0,0,0,0,0,0,0,0,0,0,0,0,0,0,0,0,0,0,0,0,0,0,0,0,0,0,0,0,0,0,0,0,0,0,0,0,0,0,0,0,0,0,0,0,
0,312,313,310,353,389,358,391,352,311,365,386,304,309,342,390,381,302,368,320,362,324,321,329,337,390,369,346,392,358,355,396,391,389,339,340,382,385,358,379,321,383,355,355,365,381,385,385,329,366,379,314,312,310,333,371,330,352,355,0,
0,317,373,303,299,351,354,318,323,299,335,388,366,367,382,396,378,389,393,370,363,381,336,323,353,363,395,340,356,342,362,312,389,312,318,384,387,379,357,328,370,321,351,305,387,384,315,317,299,383,328,302,387,365,354,361,362,378,392,0,
0,361,382,360,349,319,336,366,368,301,324,394,338,375,320,358,382,385,321,359,300,391,314,374,342,347,340,344,394,374,345,337,361,340,366,311,307,354,321,330,367,308,374,321,326,390,314,341,395,380,322,378,302,343,366,315,381,321,304,0,
0,394,390,340,329,356,353,334,299,337,321,382,371,372,345,345,332,389,341,347,366,350,349,303,321,342,344,388,373,320,313,387,389,332,394,378,360,317,352,309,396,351,329,305,321,301,343,392,320,322,396,300,299,379,395,333,329,346,309,0,
0,342,321,355,329,317,372,339,383,345,378,363,352,368,385,340,359,357,369,302,385,329,359,379,304,303,383,348,332,339,338,354,382,379,385,306,314,381,390,362,347,352,306,376,318,332,322,385,386,383,345,309,396,341,337,332,357,304,345,0,
0,335,375,315,393,317,338,311,320,340,382,328,299,321,375,323,354,361,386,341,358,335,307,393,374,317,358,353,326,374,373,393,324,306,368,346,348,316,330,332,309,314,373,312,380,347,389,382,309,340,301,305,367,348,388,299,391,303,319,0,
0,335,315,307,357,314,317,388,359,385,301,316,329,310,335,305,391,390,307,392,362,334,326,372,365,363,381,341,384,337,377,299,356,368,388,365,315,389,334,355,395,347,385,387,360,355,359,305,361,392,381,335,342,326,357,306,370,308,326,0,
0,392,321,351,374,381,307,340,340,340,389,349,343,396,343,337,314,329,333,352,353,322,345,351,359,373,360,317,302,365,359,328,345,312,375,337,388,318,314,354,321,347,340,389,365,334,356,315,350,345,329,300,355,379,349,299,379,379,351,0,
0,337,348,336,379,379,388,340,340,301,357,325,391,352,324,340,390,368,348,303,326,343,370,316,335,312,361,348,384,389,370,372,340,362,386,336,377,355,340,372,371,316,348,366,345,342,323,347,300,368,354,341,315,363,335,345,370,393,343,0,
0,302,390,341,346,314,396,340,350,337,386,313,361,308,357,317,317,318,341,312,365,322,335,308,375,317,319,396,353,308,340,313,348,326,306,376,380,305,307,352,393,318,378,380,382,393,389,390,395,351,313,330,387,321,307,308,334,388,345,0,
0,388,380,349,342,337,370,352,346,321,367,349,304,387,306,328,334,358,360,318,382,368,393,339,311,309,350,321,391,359,381,389,348,310,355,367,343,299,314,381,327,314,309,315,341,370,316,307,348,327,358,351,373,352,381,347,349,310,384,0,
0,370,333,328,334,324,313,314,330,352,312,370,343,313,314,372,305,375,362,326,314,337,356,330,371,395,323,320,359,300,311,358,301,392,343,384,311,382,303,381,374,383,334,359,355,386,324,311,371,328,325,308,349,339,311,371,313,381,396,0,
0,337,375,308,332,347,379,320,338,302,367,334,393,320,361,320,384,376,325,345,340,368,369,318,310,303,396,366,396,368,359,394,350,312,391,338,375,370,354,330,373,366,369,392,317,375,317,343,326,366,301,386,300,308,376,332,385,380,324,0,
0,354,316,316,307,387,349,310,329,369,373,339,322,343,322,382,381,335,308,317,395,393,391,384,379,309,383,343,353,360,379,330,313,367,317,346,392,339,305,310,306,381,360,326,312,353,351,366,375,326,371,321,368,346,361,368,356,379,394,0,
0,323,340,371,307,391,380,301,327,316,333,378,335,342,360,318,330,337,394,342,394,376,337,301,303,340,350,342,311,363,365,302,362,367,324,311,375,367,377,354,312,337,352,299,372,374,341,380,348,358,365,386,328,395,361,352,385,358,358,0,
0,339,344,330,314,378,394,365,375,392,363,365,301,344,380,390,391,381,329,324,353,360,391,341,340,311,335,334,324,339,381,336,348,330,352,340,321,387,390,317,362,385,387,310,300,396,323,376,389,337,347,330,341,348,378,378,381,384,301,0,
0,392,304,396,391,375,377,322,313,363,378,325,319,370,359,316,334,384,366,317,315,351,385,308,385,329,374,379,366,350,367,312,365,356,396,311,393,303,338,396,325,363,379,350,300,368,351,304,374,346,377,308,344,372,312,335,340,303,394,0,
0,336,313,307,390,342,372,352,344,299,328,353,336,339,381,323,394,333,315,354,327,315,386,355,383,318,373,339,319,341,370,312,353,383,381,341,396,353,384,335,300,372,377,322,391,387,341,386,330,328,383,307,304,346,342,321,317,315,396,0,
0,335,343,317,302,372,391,315,394,395,368,390,382,345,388,316,342,373,303,311,347,356,329,314,307,394,336,313,328,366,383,378,393,382,391,333,338,325,303,344,383,333,372,367,387,381,381,340,342,353,394,369,355,318,361,308,308,370,334,0,
0,343,389,301,386,373,392,307,346,365,346,324,311,314,339,308,359,376,328,368,377,310,321,387,329,394,386,311,365,311,357,371,345,392,391,316,362,311,314,381,312,313,351,337,368,390,386,304,369,322,370,393,346,366,347,305,371,356,338,0,
0,312,329,311,369,311,368,336,301,340,362,299,367,372,383,301,369,371,372,317,372,367,367,355,351,345,319,334,370,333,368,325,322,329,391,385,315,332,351,387,322,370,309,337,342,348,306,384,377,374,310,363,361,327,388,328,305,309,373,0,
0,392,355,359,306,318,328,332,369,306,361,303,393,347,392,352,308,320,359,306,324,383,368,361,390,319,353,384,393,309,315,360,334,375,339,309,319,384,367,305,308,343,346,309,339,352,299,391,336,347,322,351,318,347,323,334,387,390,316,0,
0,319,352,327,380,354,359,335,390,349,348,392,362,368,386,352,381,382,384,339,327,372,339,346,352,326,367,310,304,324,324,369,390,354,350,305,365,322,378,358,387,345,394,356,392,301,380,323,357,369,360,373,379,342,387,368,321,305,315,0,
0,330,363,365,389,385,335,320,333,356,314,305,370,335,302,345,396,299,338,347,376,386,389,344,303,305,310,396,383,354,357,305,352,311,323,321,317,361,382,343,383,323,332,370,362,317,366,340,354,354,379,302,309,380,351,395,390,337,381,0,
0,355,394,392,330,367,383,332,308,333,360,372,377,321,365,352,350,373,318,312,329,326,347,392,302,377,330,366,308,347,323,393,337,345,326,334,337,314,309,306,318,386,323,342,299,373,356,393,315,365,343,366,365,339,374,379,329,341,363,0,
0,323,374,336,348,372,389,315,348,355,346,303,355,305,395,368,396,387,308,322,343,390,371,307,388,387,386,385,324,387,325,343,387,383,324,381,390,380,330,395,371,380,337,375,386,327,395,328,349,339,327,389,375,354,342,351,308,322,379,0,
0,313,373,328,392,310,384,303,315,389,324,363,367,320,375,320,396,301,321,352,372,302,353,336,342,328,341,362,367,314,305,393,387,319,359,344,314,316,352,345,380,328,350,390,315,300,306,351,382,379,355,357,306,369,308,300,347,335,328,0,
0,302,353,365,349,369,321,323,309,390,310,303,300,333,365,352,341,327,300,356,334,354,349,361,396,335,299,339,376,306,387,367,363,379,379,322,347,307,377,338,306,348,308,307,323,332,388,357,352,315,388,330,304,393,391,309,335,325,387,0,
0,0,0,0,0,0,0,0,0,0,0,0,0,0,0,0,0,0,0,0,0,0,0,0,0,0,0,0,0,0,0,0,0,0,0,0,0,0,0,0,0,0,0,0,0,0,0,0,0,0,0,0,0,0,0,0,0,0,0,0
</data>
 </layer>
 <layer id="1" name="Plataformas" width="60" height="30">
  <data encoding="csv">
835,835,835,835,835,835,835,835,835,835,835,835,835,835,835,835,835,835,835,835,835,835,835,835,835,835,835,835,835,835,835,835,835,835,835,835,835,835,835,835,835,835,835,835,835,835,835,835,835,835,835,835,835,835,835,835,835,835,835,835,
835,0,0,0,0,0,0,0,0,0,0,0,0,0,0,0,0,0,0,0,0,0,0,0,0,0,0,0,0,0,0,0,0,832,0,0,0,0,0,0,0,0,832,0,0,832,0,0,0,0,0,0,0,0,0,0,0,0,0,835,
835,0,0,0,0,0,0,0,0,0,0,0,0,0,0,0,0,0,0,0,0,0,0,0,0,0,0,0,0,0,0,0,0,832,0,0,0,0,0,0,0,0,832,0,0,832,0,0,0,0,0,0,0,0,0,0,0,0,0,835,
835,0,0,832,832,832,832,832,832,832,832,832,832,832,832,832,832,0,0,832,832,832,832,832,832,832,832,832,832,832,832,832,832,832,832,832,832,832,0,0,0,0,0,0,0,0,0,0,0,832,832,832,832,832,832,832,832,0,0,835,
835,0,0,832,0,0,0,0,0,0,0,0,0,0,0,0,832,0,0,832,0,0,0,0,0,0,0,0,0,0,0,0,0,0,0,0,0,832,0,0,0,0,0,0,0,0,0,0,0,832,0,0,0,0,832,0,0,0,0,835,
835,0,0,832,0,0,0,0,0,0,0,0,0,0,0,0,832,0,0,832,0,0,0,0,0,0,0,0,0,0,0,0,0,0,0,0,0,832,0,0,832,832,832,0,0,832,832,832,832,832,0,0,0,0,832,0,0,0,0,835,
835,0,0,832,0,0,0,0,0,0,0,0,0,0,0,0,832,0,0,832,0,0,832,832,832,832,832,832,832,0,0,832,832,832,832,0,0,832,0,0,0,0,832,0,0,832,0,0,0,0,0,0,0,0,832,0,0,0,0,835,
831,0,0,832,832,832,832,832,832,832,832,832,832,832,0,0,832,0,0,832,0,0,832,0,0,0,0,0,832,0,0,832,0,0,832,0,0,832,0,0,0,0,832,0,0,832,0,0,0,0,0,0,0,0,832,0,0,0,0,835,
835,0,0,0,0,0,0,0,0,0,0,0,0,0,0,0,0,0,0,832,0,0,832,0,0,0,0,0,832,0,0,832,0,0,832,0,0,832,0,0,0,0,832,0,0,832,0,0,0,0,0,0,0,0,832,0,0,0,0,835,
835,0,0,0,0,0,0,0,0,0,0,0,0,0,0,0,0,0,0,832,0,0,0,0,0,832,0,0,832,0,0,832,0,0,832,832,832,832,832,832,832,832,832,0,0,832,832,832,832,832,832,832,0,0,832,0,0,0,0,835,
835,0,0,832,832,832,832,0,0,832,832,832,832,832,0,0,832,0,0,832,0,0,0,0,0,832,0,0,832,0,0,832,0,0,0,0,0,0,0,0,0,0,0,0,0,0,0,0,0,0,0,0,0,0,832,0,0,0,0,835,
835,0,0,832,0,0,832,0,0,0,0,0,0,832,0,0,832,0,0,832,832,832,832,832,832,832,0,0,832,0,0,832,0,0,0,0,0,0,0,0,0,0,0,0,0,0,0,0,0,0,0,0,0,0,832,0,0,0,0,835,
835,0,0,832,0,0,832,0,0,0,0,0,0,832,0,0,832,0,0,0,0,0,0,0,0,0,0,0,832,0,0,832,0,0,832,0,0,832,832,832,832,832,832,832,832,0,0,832,832,832,832,832,0,0,832,0,0,0,0,835,
835,0,0,830,0,0,832,0,0,0,832,0,0,832,0,0,832,0,0,0,0,0,0,0,0,0,0,0,832,0,0,832,0,0,832,0,0,832,0,0,0,0,0,0,0,0,0,0,0,0,0,832,0,0,832,0,0,0,0,835,
835,0,0,830,0,0,832,0,0,0,832,0,0,832,0,0,832,832,832,832,832,832,832,832,832,832,832,832,832,0,0,832,0,0,832,0,0,832,0,0,0,0,0,0,0,0,0,0,0,0,0,832,0,0,832,0,0,0,0,835,
835,0,0,832,0,0,0,0,0,0,832,0,0,832,0,0,0,0,0,0,0,0,0,0,0,0,832,0,0,0,0,832,0,0,832,0,0,832,0,0,832,832,832,832,832,832,832,0,0,0,0,832,0,0,832,832,832,0,0,835,
835,0,0,832,0,0,0,0,0,0,832,0,0,832,0,0,0,0,0,0,0,0,0,0,0,0,832,0,0,0,0,0,0,0,832,0,0,832,0,0,832,0,0,0,0,0,832,0,0,0,0,832,0,0,0,0,832,0,0,835,
835,0,0,832,832,832,832,832,832,832,832,0,0,832,832,832,832,832,832,832,832,832,832,832,0,0,832,0,0,0,0,0,0,0,832,0,0,832,0,0,832,0,0,0,0,0,832,832,832,0,0,832,0,0,0,0,832,0,0,835,
835,0,0,0,0,0,0,0,0,0,0,0,0,0,0,0,0,0,0,0,0,0,0,0,0,0,832,0,0,0,0,832,0,0,832,0,0,832,0,0,832,0,0,0,0,0,0,0,832,0,0,832,0,0,0,0,832,0,0,835,
835,0,0,0,0,0,0,0,0,0,0,0,0,0,0,0,0,0,0,0,0,0,0,0,0,0,832,0,0,0,0,832,0,0,832,0,0,832,0,0,832,832,832,0,0,0,0,0,832,0,0,832,0,0,0,0,832,0,0,835,
835,0,0,832,832,832,0,0,832,0,0,832,832,832,832,832,832,832,832,0,0,832,832,832,0,0,832,0,0,0,0,832,0,0,832,0,0,832,0,0,0,0,832,0,0,0,0,0,832,0,0,832,832,832,0,0,832,832,832,835,
835,0,0,832,0,0,0,0,832,0,0,832,0,0,0,0,0,0,0,0,0,0,0,832,0,0,832,0,0,0,0,832,0,0,832,0,0,832,0,0,0,0,832,0,0,0,0,0,832,0,0,0,0,0,0,0,0,0,0,835,
835,0,0,832,0,0,0,0,832,0,0,832,0,0,0,0,0,0,0,0,0,0,0,832,0,0,832,832,832,0,0,832,832,832,832,0,0,832,832,832,0,0,832,832,832,832,0,0,832,0,0,0,0,0,0,0,0,0,0,835,
835,0,0,832,0,0,0,0,832,0,0,0,0,0,0,0,0,0,0,0,0,0,0,0,0,0,0,0,0,0,0,0,0,0,0,0,0,0,0,0,0,0,0,0,0,0,0,0,832,0,0,832,832,832,832,832,832,0,0,835,
835,0,0,832,0,0,0,0,832,0,0,0,0,0,0,0,0,0,0,0,0,0,0,0,0,0,0,0,0,0,0,0,0,0,0,0,0,0,0,0,0,0,0,0,0,0,0,0,832,0,0,832,0,0,0,0,832,0,0,835,
835,0,0,832,0,0,0,0,832,0,0,832,0,0,0,0,0,0,0,0,0,0,0,832,0,0,832,0,0,0,0,832,832,832,832,0,0,832,832,832,832,832,832,832,832,832,832,832,832,0,0,832,0,0,0,0,832,0,0,835,
835,0,0,832,832,832,832,832,832,0,0,832,832,832,832,832,0,0,832,832,832,832,832,832,832,832,832,832,832,832,832,832,0,0,0,0,0,0,0,832,0,0,0,0,0,0,0,0,0,0,0,832,0,0,0,0,832,0,0,835,
835,0,0,0,0,0,0,0,0,0,0,0,0,0,0,832,0,0,0,0,0,0,0,0,0,0,0,0,832,0,0,0,0,0,0,0,0,0,0,832,0,0,0,0,0,0,0,0,0,0,0,0,0,0,0,0,832,0,0,835,
835,0,0,0,0,0,0,0,0,0,0,0,0,0,0,832,0,0,0,0,0,0,0,0,0,0,0,0,832,0,0,0,0,0,0,0,0,0,0,832,0,0,0,0,0,0,0,0,0,0,0,0,0,0,0,0,832,0,0,835,
835,835,835,835,835,835,835,835,835,835,835,835,835,835,835,835,835,835,835,835,835,835,835,835,835,835,835,835,835,835,835,835,835,835,835,835,835,835,835,835,835,835,835,835,835,835,835,835,835,835,835,835,835,835,835,835,835,835,835,835
</data>
 </layer>
 <objectgroup id="3" name="Objetos">
  <object id="1" name="player" x="52" y="368">
   <point/>
  </object>
  <object id="2" name="goal" type="goal" x="1394" y="455.333">
   <point/>
  </object>
  <object id="3" type="star" x="645.333" y="326">
   <point/>
  </object>
  <object id="4" type="star" x="964" y="199.333">
   <point/>
  </object>
  <object id="5" type="star" x="1065.33" y="516.667">
   <point/>
  </object>
  <object id="6" type="star" x="1293.33" y="637.333">
   <point/>
  </object>
  <object id="7" type="star" x="137.333" y="151.333">
   <point/>
  </object>
 </objectgroup>
</map>
